ic16/ic16__mail.svg

<svg fill="none" height="16" width="16" xmlns="http://www.w3.org/2000/svg" xmlns:xlink="http://www.w3.org/1999/xlink"><clipPath id="a"><path d="m0 0h16v16h-16z"/></clipPath><g clip-path="url(#a)"><path clip-rule="evenodd" d="m1.75 2a1.75 1.75 0 0 0 -1.75 1.75v.736a.75.75 0 0 0 0 .027v7.737c0 .966.784 1.75 1.75 1.75h12.5a1.75 1.75 0 0 0 1.75-1.75v-8.5a1.75 1.75 0 0 0 -1.75-1.75zm12.75 2.07v-.32a.25.25 0 0 0 -.25-.25h-12.5a.25.25 0 0 0 -.25.25v.32l6.5 3.81zm-13 1.74v6.441c0 .138.112.25.25.25h12.5a.25.25 0 0 0 .25-.25v-6.442l-6.12 3.588a.75.75 0 0 1 -.76 0l-6.12-3.588z" fill-rule="evenodd"/></g></svg>

<svg width="16" height="16" fill="none" xmlns="http://www.w3.org/2000/svg">
  <g clip-path="url(#ic16__mail__clip0)">
    <path fill-rule="evenodd" clip-rule="evenodd" d="M1.75 2A1.75 1.75 0 000 3.75v.736a.75.75 0 000 .027v7.737C0 13.216.784 14 1.75 14h12.5A1.75 1.75 0 0016 12.25v-8.5A1.75 1.75 0 0014.25 2H1.75zM14.5 4.07v-.32a.25.25 0 00-.25-.25H1.75a.25.25 0 00-.25.25v.32L8 7.88l6.5-3.81zm-13 1.74v6.441c0 .138.112.25.25.25h12.5a.25.25 0 00.25-.25V5.809L8.38 9.397a.75.75 0 01-.76 0L1.5 5.809z" />
  </g>
  <defs>
    <clipPath id="ic16__mail__clip0">
      <path  d="M0 0h16v16H0z"/>
    </clipPath>
  </defs>
</svg>
